X: 2263
Q: "Jig."
M: 6/8
L: 1/8
K: F
uA |\
{g} fed AFD | {F}EDB, DFA | {e}dcd eag | fdd d2 :|
|: (uf/g/) |\
a(fa) g(eg) | fed ecA | {e}dcd ede | fdf (efg) |\
a(fa) g(eg) | {g}fed ecA | {e}dcd AFD | {F}EDE D2 :|


